X: 33680
T: Rämmen
R: polka
M: 2/4
K: Aminor
^d2de e^GAB|Bccd c2BA|Bcd2 cAB^G|A2"tr"A2 E^F^GA|BcB^G EDE^F|^G2GA BcB
A|^GEGA ^FDFD|E4E2z2:|:d2de|c6dc|BAB^G A4|decd BcAB|^G6AG|E^GAB cded|c2
B/c/d c2BA|Bcd2cAB^G|A4A2A2:|

